assets/img/covid/virus.svg

<svg width="250" height="262" viewBox="0 0 250 262" fill="none" xmlns="http://www.w3.org/2000/svg">
<path d="M5.86597 158.597L8.64764 168.997C8.64764 168.997 32.4418 163.562 43.7398 164.717C48.413 176.576 55.5452 187.311 64.6667 196.215C62.2311 203.766 58.8062 210.961 54.4814 217.612L63.3401 223.646C67.4603 217.376 72.6283 211.86 78.6181 207.341C82.0779 209.597 85.6964 211.6 89.4453 213.333C96.7519 216.788 104.499 219.222 112.469 220.565C113.496 227.883 115.55 244.873 113.924 254.288L124.495 256.128C124.495 256.128 129.887 230.708 135.793 221.507C148.632 220.353 161.077 216.472 172.297 210.123C177.959 214.974 182.966 220.541 187.19 226.685L196.262 220.822C191.923 214.514 188.736 207.486 186.847 200.066C194.485 193.517 200.954 185.717 205.977 177C212.824 177.941 230.584 180.723 239.486 185.045L244.193 175.416C244.193 175.416 222.796 164.032 214.921 155.901C217.102 148.069 218.225 139.98 218.259 131.85C225.287 129.438 232.592 127.929 239.999 127.357L239.357 116.658C231.672 117.243 223.944 116.432 216.547 114.262C214.607 104.382 211.035 94.894 205.977 86.1878C208.887 82.4218 221.811 65.9456 230.884 59.8686L224.893 50.9243C224.893 50.9243 201.056 65.6887 190.913 66.887C185.291 61.3888 178.958 56.6679 172.083 52.8501C173.4 44.9501 175.775 37.2634 179.144 29.9974L169.644 25.3327C169.644 25.3327 162.583 40.0115 154.708 45.361C146.21 42.6378 137.354 41.1955 128.432 41.0814C128.004 40.0971 118.503 17.9719 117.605 6.07483L107.034 6.84511C107.034 6.84511 108.104 35.6464 103.91 44.3339C92.3545 47.51 81.5474 52.9567 72.1201 60.3559C62.6929 67.7552 54.8344 76.9586 49.0036 87.4287C49.5025 86.2042 50.0889 85.0172 50.7583 83.8768C50.7583 83.8768 25.9369 80.9239 14.8957 75.5745L10.2739 85.1179C10.2739 85.1179 35.0952 98.3417 40.9154 106.516C37.5977 117.972 36.6081 129.977 38.0052 141.822C34.1536 144.304 16.522 155.773 5.86597 158.597ZM165.364 49.2553L162.24 47.9287L165.364 49.2553Z" fill="#EBEBEB"/>
<path d="M59.3174 40.1398L68.1332 34.2769C72.9655 41.1314 78.7267 47.2813 85.2514 52.5504C79.3456 55.5461 68.7751 62.8213 68.7751 62.8213C68.2616 53.3207 59.3174 40.1398 59.3174 40.1398Z" fill="#EBEBEB"/>
<path d="M59.873 136.772C64.5377 136.515 67.5762 127.871 73.9099 117.215C74.5947 115.845 75.5789 114.519 76.4348 112.935C77.2907 111.352 78.3179 110.111 79.2593 108.656C81.416 105.681 83.7302 102.824 86.1922 100.096C96.844 87.9584 111.41 79.9334 127.361 77.4148C130.973 76.7909 134.616 76.3624 138.274 76.131C140.029 76.131 141.741 76.131 143.41 76.131C145.079 76.131 146.705 76.131 148.246 76.131C160.613 76.4734 169.643 78.5275 172.297 74.7187C172.626 74.1872 172.835 73.5899 172.909 72.9688C172.983 72.3477 172.92 71.718 172.725 71.1239C172.199 69.2364 171.296 67.4749 170.071 65.9457C165.862 60.7602 160.478 56.6526 154.365 53.963C152.376 53.0036 150.333 52.1606 148.246 51.4381C146.063 50.625 143.709 50.0258 141.313 49.3839C136.07 48.2185 130.72 47.6018 125.35 47.5437C105.909 47.3807 87.191 54.9018 73.268 68.4706C65.0775 76.4488 58.8259 86.1994 54.9943 96.9724C54.224 99.3689 53.4964 101.68 52.9829 103.905C52.4694 106.131 52.0415 108.185 51.8703 110.453C50.8869 117.061 51.4883 123.809 53.6249 130.139C54.2456 131.997 55.2517 133.703 56.5777 135.146C56.9717 135.645 57.472 136.049 58.042 136.331C58.612 136.612 59.2375 136.763 59.873 136.772Z" fill="#FAFAFA"/>
<path d="M224.464 44.7618C222.838 45.7889 224.165 50.7532 227.417 55.7603C228.435 57.2812 229.581 58.7128 230.841 60.0398C233.109 62.3936 235.12 63.549 236.276 62.8643C237.431 62.1796 236.576 56.873 233.323 51.8232C230.071 46.7733 226.219 43.692 224.464 44.7618Z" fill="#EBEBEB"/>
<path d="M242.009 111.138C240.083 111.138 238.714 116.102 238.971 122.094C239.041 123.952 239.285 125.801 239.698 127.614C240.469 130.738 241.71 132.835 242.994 132.75C244.277 132.664 246.289 127.743 245.989 121.794C245.69 115.846 243.935 111.053 242.009 111.138Z" fill="#EBEBEB"/>
<path d="M249.071 171.95C247.36 171.051 243.765 174.689 241.069 179.996C240.207 181.646 239.519 183.382 239.015 185.174C238.116 188.298 238.159 190.694 239.314 191.251C240.47 191.807 244.621 188.512 247.317 183.205C250.013 177.899 250.826 172.806 249.071 171.95Z" fill="#EBEBEB"/>
<path d="M202.125 220.352C201.055 218.726 196.134 220.01 191.084 223.262C189.563 224.264 188.131 225.395 186.804 226.643C184.451 228.911 183.295 230.923 183.98 232.078C184.665 233.234 189.971 232.421 194.978 229.168C199.985 225.916 203.152 221.978 202.125 220.352Z" fill="#EBEBEB"/>
<path d="M129.03 259.937C129.373 258.011 124.751 255.657 119.016 254.459C117.198 254.098 115.349 253.912 113.496 253.903C110.286 253.903 107.975 254.63 107.718 255.871C107.376 257.797 111.998 260.151 117.732 261.349C123.467 262.547 128.645 261.82 129.03 259.937Z" fill="#EBEBEB"/>
<path d="M65.865 228.953C66.9777 227.37 63.8964 223.262 59.0177 219.838C57.4958 218.762 55.8768 217.831 54.1818 217.056C51.2289 215.73 48.8753 215.473 48.105 216.5C47.3346 217.527 50.0735 222.149 54.9949 225.615C59.9164 229.082 64.7523 230.537 65.865 228.953Z" fill="#EBEBEB"/>
<path d="M6.97811 174.732C8.8611 174.262 9.20356 169.169 7.74852 163.391C7.31908 161.583 6.71714 159.821 5.95106 158.128C4.58161 155.175 2.95539 153.42 1.67153 153.848C-0.211469 154.319 -0.5538 159.412 0.901242 165.232C2.35628 171.052 5.09511 175.203 6.97811 174.732Z" fill="#EBEBEB"/>
<path d="M157.319 159.583C154.366 165.916 155.393 172.678 159.673 174.647C163.952 176.615 169.772 173.149 172.768 166.815C175.764 160.481 174.651 153.72 170.414 151.708C166.178 149.697 160.272 153.249 157.319 159.583Z" fill="#E0E0E0"/>
<path d="M163.267 154.446C160.272 160.78 161.342 167.541 165.621 169.51C169.901 171.479 175.721 168.012 178.674 161.678C181.627 155.345 180.6 148.583 176.363 146.572C172.126 144.56 166.306 148.069 163.267 154.446Z" fill="#F5F5F5"/>
<path d="M191.297 95.1323C187.018 89.5261 180.641 87.3006 176.875 90.1251C173.109 92.9496 173.494 99.7969 177.688 105.36C181.882 110.924 188.344 113.192 192.11 110.367C195.876 107.543 195.534 100.696 191.297 95.1323Z" fill="#E0E0E0"/>
<path d="M197.547 90.6812C193.267 85.1178 186.848 82.8497 183.082 85.717C179.316 88.5842 179.701 95.3459 183.895 100.952C188.089 106.558 194.594 108.784 198.36 105.916C202.126 103.049 201.741 96.2874 197.547 90.6812Z" fill="#F5F5F5"/>
<path d="M118.46 183.419C117.76 184.914 117.519 186.583 117.767 188.216C118.016 189.848 118.743 191.37 119.857 192.588C120.971 193.807 122.421 194.668 124.024 195.063C125.628 195.457 127.312 195.367 128.864 194.803C130.416 194.24 131.766 193.229 132.744 191.898C133.721 190.567 134.281 188.976 134.354 187.327C134.427 185.677 134.009 184.043 133.153 182.632C132.296 181.22 131.041 180.094 129.544 179.396C127.533 178.518 125.262 178.446 123.199 179.194C121.136 179.943 119.44 181.455 118.46 183.419Z" fill="#E0E0E0"/>
<path d="M120.386 179.353C119.679 180.846 119.43 182.515 119.671 184.149C119.913 185.783 120.634 187.309 121.744 188.533C122.853 189.757 124.301 190.624 125.904 191.025C127.507 191.425 129.192 191.341 130.747 190.783C132.302 190.224 133.656 189.217 134.638 187.889C135.62 186.56 136.185 184.97 136.263 183.32C136.34 181.67 135.926 180.034 135.073 178.619C134.22 177.204 132.966 176.075 131.47 175.373C130.482 174.903 129.41 174.634 128.317 174.579C127.224 174.525 126.131 174.688 125.101 175.058C124.07 175.428 123.124 175.998 122.315 176.735C121.506 177.472 120.85 178.362 120.386 179.353Z" fill="#F5F5F5"/>
<path d="M99.7583 92.8209C100.361 94.763 101.526 96.4826 103.107 97.7617C104.688 99.0408 106.613 99.8219 108.638 100.006C110.663 100.19 112.697 99.7688 114.483 98.7956C116.268 97.8225 117.725 96.3412 118.668 94.5395C119.611 92.7378 119.998 90.6968 119.779 88.6751C119.561 86.6534 118.748 84.7418 117.442 83.1828C116.137 81.6238 114.398 80.4874 112.446 79.9176C110.494 79.3479 108.416 79.3704 106.477 79.9823C103.887 80.7994 101.727 82.6088 100.468 85.0147C99.2086 87.4207 98.9535 90.2274 99.7583 92.8209Z" fill="#E0E0E0"/>
<path d="M98.1326 87.5572C98.7381 89.4997 99.9067 91.2187 101.491 92.496C103.074 93.7733 105.002 94.5514 107.029 94.7316C109.055 94.9119 111.09 94.4861 112.874 93.5083C114.658 92.5305 116.112 91.0448 117.051 89.2396C117.989 87.4344 118.371 85.3911 118.147 83.3688C117.922 81.3465 117.102 79.4364 115.791 77.8808C114.479 76.3252 112.735 75.1942 110.78 74.6312C108.825 74.0682 106.747 74.0986 104.809 74.7186C102.234 75.5541 100.09 77.3687 98.8412 79.7706C97.5921 82.1726 97.3377 84.9692 98.1326 87.5572Z" fill="#F5F5F5"/>
<path d="M76.4351 172.848C75.9222 173.945 75.746 175.169 75.9289 176.366C76.1118 177.562 76.6455 178.678 77.4625 179.571C78.2796 180.465 79.3432 181.096 80.5189 181.384C81.6945 181.673 82.9295 181.606 84.0674 181.193C85.2053 180.78 86.1951 180.039 86.9115 179.063C87.6279 178.087 88.0387 176.92 88.0921 175.711C88.1455 174.501 87.8391 173.303 87.2115 172.268C86.5839 171.233 85.6632 170.407 84.5662 169.895C83.0946 169.221 81.417 169.153 79.8955 169.705C78.374 170.258 77.131 171.387 76.4351 172.848Z" fill="#E0E0E0"/>
<path d="M77.9327 169.896C77.4326 170.986 77.2656 172.198 77.453 173.382C77.6403 174.566 78.1735 175.668 78.9855 176.549C79.7974 177.431 80.852 178.053 82.0165 178.336C83.1809 178.62 84.4031 178.553 85.5296 178.144C86.6561 177.735 87.6365 177.002 88.3475 176.037C89.0584 175.072 89.4683 173.919 89.5254 172.722C89.5825 171.524 89.2843 170.337 88.6684 169.309C88.0524 168.281 87.1462 167.458 86.0638 166.944C84.5938 166.258 82.9118 166.183 81.3871 166.737C79.8624 167.291 78.6199 168.427 77.9327 169.896Z" fill="#F5F5F5"/>
<path d="M5.30941 88.3702C7.02122 89.2689 10.5733 85.6741 13.2266 80.4103C14.05 78.772 14.737 77.0687 15.2807 75.3176C16.1366 72.2363 16.0939 69.8398 14.9812 69.2835C13.8685 68.7271 9.7173 71.9795 7.0212 77.2862C4.32509 82.5928 3.68318 87.5143 5.30941 88.3702Z" fill="#EBEBEB"/>
<path d="M53.2403 40.4396C54.2673 42.0231 59.1461 40.7392 64.1103 37.5296C65.6377 36.5527 67.0705 35.4351 68.3899 34.1916C70.658 31.9662 71.8563 29.912 71.1715 28.8421C70.4868 27.7723 65.223 28.4997 60.2588 31.7094C55.2945 34.919 52.2132 38.8134 53.2403 40.4396Z" fill="#EBEBEB"/>
<path d="M101.641 4.14921C101.641 6.03221 106.606 7.31609 112.511 6.97373C114.343 6.86047 116.162 6.58841 117.947 6.1606C121.028 5.34749 123.082 4.14927 122.996 2.86541C122.911 1.58154 117.989 -0.30147 112.126 0.0408933C106.263 0.383256 101.513 2.22342 101.641 4.14921Z" fill="#EBEBEB"/>
<path d="M166.305 20.1549C165.449 21.8667 169.001 25.4188 174.265 28.1149C175.903 28.9383 177.606 29.6254 179.358 30.1691C182.439 31.025 184.793 31.025 185.392 29.8695C185.991 28.7141 182.696 24.6056 177.432 21.9095C172.168 19.2134 167.204 18.4431 166.305 20.1549Z" fill="#EBEBEB"/>
<path d="M65.4797 143.79C65.822 150.765 69.7592 156.243 74.5951 156.029C79.431 155.815 82.8546 149.952 82.5123 142.934C82.1699 135.915 78.2327 130.48 73.354 130.694C68.4753 130.908 65.1373 136.814 65.4797 143.79Z" fill="#E0E0E0"/>
<path d="M63.5959 139.168C63.9383 146.144 67.8755 151.622 72.7114 151.408C77.5472 151.194 80.9281 145.331 80.5857 138.569C80.2433 131.807 76.3061 126.073 71.4703 126.33C66.6344 126.586 63.2964 132.193 63.5959 139.168Z" fill="#F5F5F5"/>
<path d="M117.432 123.591C116.324 125.89 115.926 128.467 116.289 130.994C116.653 133.52 117.761 135.881 119.472 137.775C121.183 139.668 123.42 141.009 125.897 141.625C128.374 142.241 130.978 142.105 133.377 141.235C135.777 140.364 137.862 138.798 139.367 136.736C140.872 134.675 141.728 132.212 141.826 129.661C141.925 127.111 141.261 124.589 139.919 122.418C138.577 120.246 136.619 118.524 134.294 117.471C131.241 116.089 127.768 115.955 124.617 117.098C121.467 118.242 118.888 120.572 117.432 123.591Z" fill="#E0E0E0"/>
<path d="M120.557 116.915C119.441 119.212 119.036 121.789 119.392 124.317C119.748 126.845 120.85 129.21 122.557 131.109C124.264 133.008 126.498 134.354 128.974 134.977C131.451 135.599 134.056 135.47 136.458 134.604C138.86 133.738 140.949 132.176 142.459 130.117C143.969 128.058 144.83 125.595 144.933 123.044C145.036 120.493 144.376 117.969 143.038 115.795C141.699 113.621 139.743 111.895 137.419 110.838C134.371 109.453 130.902 109.312 127.752 110.448C124.602 111.583 122.02 113.904 120.557 116.915Z" fill="#F5F5F5"/>
<g opacity="0.2">
<path opacity="0.2" d="M200.884 162.664C199.51 162.028 197.979 161.809 196.482 162.035C194.984 162.26 193.586 162.919 192.459 163.93C191.332 164.942 190.527 166.262 190.142 167.726C189.757 169.191 189.81 170.736 190.294 172.171C190.778 173.605 191.672 174.867 192.865 175.799C194.059 176.731 195.499 177.293 197.008 177.415C198.517 177.538 200.029 177.215 201.357 176.487C202.685 175.759 203.77 174.658 204.479 173.32C204.947 172.385 205.226 171.366 205.299 170.323C205.371 169.28 205.237 168.233 204.902 167.243C204.568 166.252 204.041 165.337 203.351 164.551C202.662 163.765 201.823 163.124 200.884 162.664Z" fill="#E0E0E0"/>
</g>
</svg>

<svg xmlns="http://www.w3.org/2000/svg" width="250" height="262" fill="none" xmlns:v="https://vecta.io/nano"><style><![CDATA[.B{fill:#e0e0e0}.C{fill:#f5f5f5}.D{fill:#ebebeb}]]></style><g class="D"><path d="M5.866 158.597l2.782 10.4s23.794-5.435 35.092-4.28c4.673 11.86 11.805 22.594 20.927 31.498-2.436 7.55-5.86 14.746-10.185 21.397l8.86 6.034a65.45 65.45 0 0 1 15.278-16.305 85.53 85.53 0 0 0 10.827 5.992 88.11 88.11 0 0 0 23.024 7.232c1.027 7.318 3.08 24.308 1.455 33.723l10.57 1.84s5.392-25.42 11.298-34.62a90.59 90.59 0 0 0 36.504-11.384c5.662 4.85 10.67 10.418 14.893 16.562l9.072-5.863a64.86 64.86 0 0 1-9.415-20.756A88.76 88.76 0 0 0 205.977 177c6.847.94 24.607 3.723 33.51 8.045l4.707-9.63s-21.397-11.384-29.272-19.515c2.18-7.832 3.304-15.92 3.338-24.05 7.028-2.412 14.333-3.92 21.74-4.493l-.642-10.7a63.82 63.82 0 0 1-22.81-2.396 90.66 90.66 0 0 0-10.57-28.074c2.9-3.766 15.834-20.242 24.907-26.32l-5.99-8.944s-23.837 14.764-33.98 15.963a88.11 88.11 0 0 0-18.83-14.037c1.317-7.9 3.692-15.587 7.06-22.853l-9.5-4.665s-7.06 14.68-14.936 20.028a89.87 89.87 0 0 0-26.276-4.28c-.428-.984-9.93-23.11-10.827-35.007l-10.57.77s1.07 28.8-3.124 37.49c-11.555 3.176-22.363 8.623-31.8 16.022S54.834 76.96 49.004 87.43c.5-1.225 1.085-2.412 1.755-3.552 0 0-24.82-2.953-35.863-8.302l-4.622 9.543s24.82 13.224 30.642 21.398c-3.318 11.456-4.307 23.46-2.9 35.306-3.852 2.482-21.483 13.95-32.14 16.775zM165.364 49.255l-3.124-1.327 3.124 1.327z"/><path d="M59.317 40.14l8.816-5.863C72.966 41.13 78.727 47.28 85.25 52.55c-5.906 2.996-16.476 10.27-16.476 10.27-.513-9.5-9.458-22.68-9.458-22.68z"/></g><path d="M59.873 136.772c4.665-.257 7.703-8.9 14.037-19.557.685-1.37 1.67-2.696 2.525-4.28s1.883-2.824 2.825-4.28a103.07 103.07 0 0 1 6.933-8.56c10.652-12.138 25.218-20.163 41.17-22.68a101.92 101.92 0 0 1 10.913-1.284h9.972c12.367.342 21.397 2.397 24.05-1.412a4.29 4.29 0 0 0 .428-3.595c-.526-1.888-1.43-3.65-2.654-5.178a42.03 42.03 0 0 0-15.706-11.983 57.02 57.02 0 0 0-6.119-2.525c-2.183-.813-4.537-1.412-6.933-2.054a77.43 77.43 0 0 0-15.963-1.84c-19.44-.163-38.16 7.358-52.082 20.927-8.2 7.978-14.442 17.73-18.274 28.502-.77 2.397-1.498 4.708-2.01 6.933s-.94 4.28-1.113 6.548c-.983 6.608-.382 13.356 1.755 19.686.62 1.858 1.627 3.564 2.953 5.007.394.5.894.903 1.464 1.185a4.28 4.28 0 0 0 1.831.441z" fill="#fafafa"/><path d="M224.464 44.762c-1.626 1.027-.3 6 2.953 11a32.41 32.41 0 0 0 3.424 4.28c2.268 2.354 4.28 3.5 5.435 2.825s.3-6-2.953-11.04-7.104-8.13-8.86-7.06zM242 111.138c-1.926 0-3.295 4.964-3.038 10.956.07 1.858.314 3.707.727 5.52.77 3.124 2.012 5.22 3.296 5.136s3.295-5.007 2.995-10.956-2.054-10.74-3.98-10.656zm7.06 60.812c-1.7-.9-5.306 2.74-8.002 8.046a26.93 26.93 0 0 0-2.054 5.178c-.9 3.124-.856 5.52.3 6.077s5.307-2.74 8.003-8.046 3.5-10.4 1.754-11.255zm-46.945 48.402c-1.07-1.626-6-.342-11.04 2.9a31.71 31.71 0 0 0-4.28 3.381c-2.353 2.268-3.5 4.28-2.824 5.435s6 .343 10.998-2.9 8.174-7.2 7.147-8.816zm-73.095 39.585c.343-1.926-4.28-4.28-10.014-5.478a29.07 29.07 0 0 0-5.52-.556c-3.2 0-5.52.727-5.778 1.968-.342 1.926 4.28 4.28 10.014 5.478s10.913.47 11.298-1.412zm-63.165-30.984c1.113-1.583-1.97-5.7-6.847-9.115a29.91 29.91 0 0 0-4.836-2.782c-2.953-1.326-5.306-1.583-6.077-.556s1.97 5.65 6.9 9.115 9.757 4.922 10.87 3.338zm-58.887-54.22c1.883-.47 2.225-5.563.77-11.34a29.05 29.05 0 0 0-1.797-5.263c-1.37-2.953-2.996-4.708-4.28-4.28-1.883.47-2.225 5.564-.77 11.384s4.194 9.97 6.077 9.5z" class="D"/><path d="M157.32 159.583c-2.953 6.333-1.926 13.095 2.354 15.064s10.1-1.498 13.095-7.832 1.883-13.095-2.354-15.107-10.142 1.54-13.095 7.875z" class="B"/><path d="M163.267 154.446c-2.995 6.334-1.925 13.095 2.354 15.064s10.1-1.498 13.053-7.832 1.926-13.095-2.31-15.106-10.057 1.497-13.096 7.874z" class="C"/><path d="M191.297 95.132c-4.28-5.606-10.656-7.832-14.422-5.007s-3.38 9.672.813 15.235 10.656 7.832 14.422 5.007 3.424-9.67-.813-15.235z" class="B"/><path d="M197.547 90.68c-4.28-5.563-10.7-7.832-14.465-4.964s-3.38 9.63.813 15.235 10.7 7.832 14.465 4.964 3.38-9.63-.813-15.235z" class="C"/><path d="M118.46 183.42c-.7 1.495-.94 3.164-.693 4.797a8.34 8.34 0 0 0 2.09 4.372 8.35 8.35 0 0 0 4.167 2.475 8.34 8.34 0 0 0 4.84-.26c1.552-.563 2.902-1.574 3.88-2.905a8.35 8.35 0 0 0 1.61-4.571 8.34 8.34 0 0 0-1.201-4.695 8.35 8.35 0 0 0-3.609-3.236 8.56 8.56 0 0 0-11.084 4.023z" class="B"/><path d="M120.386 179.353c-.707 1.493-.956 3.162-.715 4.796s.963 3.16 2.073 4.384 2.557 2.09 4.16 2.492a8.35 8.35 0 0 0 4.843-.242c1.555-.56 2.91-1.566 3.89-2.894a8.35 8.35 0 0 0 .435-9.27c-.853-1.415-2.107-2.544-3.603-3.246a8.31 8.31 0 0 0-3.153-.794 8.3 8.3 0 0 0-6.002 2.156 8.31 8.31 0 0 0-1.929 2.618z" class="C"/><path d="M99.758 92.82a10.27 10.27 0 0 0 3.349 4.941c1.58 1.28 3.506 2.06 5.53 2.244a10.27 10.27 0 0 0 5.845-1.21c1.785-.973 3.242-2.454 4.185-4.256s1.33-3.843 1.11-5.864-1.03-3.933-2.337-5.492-3.044-2.695-4.996-3.265-4.03-.547-5.97.065a10.27 10.27 0 0 0-6.719 12.839z" class="B"/><path d="M98.133 87.557a10.27 10.27 0 0 0 3.358 4.939c1.583 1.277 3.51 2.055 5.538 2.236a10.27 10.27 0 0 0 5.845-1.223c1.784-.978 3.238-2.464 4.177-4.27a10.28 10.28 0 0 0-1.26-11.359c-1.312-1.556-3.056-2.687-5.01-3.25a10.27 10.27 0 0 0-5.971.087c-2.575.836-4.72 2.65-5.968 5.052s-1.504 5.2-.71 7.787z" class="C"/><path d="M76.435 172.848a6.12 6.12 0 0 0 1.027 6.723 6.11 6.11 0 0 0 3.056 1.813 6.12 6.12 0 0 0 3.549-.191c1.138-.413 2.128-1.154 2.844-2.13a6.12 6.12 0 0 0 .3-6.795 6.12 6.12 0 0 0-2.645-2.373c-1.472-.674-3.15-.742-4.67-.2s-2.764 1.682-3.46 3.143z" class="B"/><path d="M77.933 169.896a6.08 6.08 0 0 0-.48 3.486c.187 1.184.72 2.286 1.532 3.167s1.867 1.504 3.03 1.787 2.387.217 3.513-.192 2.107-1.142 2.818-2.107 1.12-2.118 1.178-3.315-.24-2.385-.857-3.413-1.522-1.85-2.605-2.365a6.12 6.12 0 0 0-8.131 2.952z" class="C"/><path d="M5.3 88.37c1.712.9 5.264-2.696 7.917-7.96.823-1.638 1.5-3.342 2.054-5.093.856-3.08.813-5.478-.3-6.034s-5.264 2.696-7.96 8.003S3.683 87.514 5.3 88.37zm47.93-47.93c1.027 1.584 5.906.3 10.87-2.9a29.1 29.1 0 0 0 4.28-3.338c2.268-2.225 3.466-4.28 2.782-5.35S65.223 28.5 60.26 31.7s-8.046 7.104-7.02 8.73zm48.4-36.3c0 1.883 4.965 3.167 10.87 2.825 1.832-.113 3.65-.385 5.436-.813 3.08-.813 5.135-2 5.05-3.295S118-.3 112.126.04s-10.613 2.183-10.486 4.1zm64.665 16.005c-.856 1.712 2.696 5.264 7.96 7.96a33.34 33.34 0 0 0 5.093 2.054c3.08.856 5.435.856 6.034-.3s-2.696-5.264-7.96-7.96-10.228-3.466-11.127-1.755z" class="D"/><path d="M65.48 143.8c.342 6.975 4.28 12.453 9.115 12.24s8.26-6.077 7.917-13.095-4.28-12.454-9.158-12.24-8.217 6.12-7.874 13.096z" class="B"/><path d="M63.596 139.168c.342 6.976 4.28 12.454 9.115 12.24s8.217-6.077 7.874-12.84-4.28-12.496-9.115-12.24-8.174 5.863-7.874 12.838z" class="C"/><path d="M117.432 123.59c-1.108 2.3-1.506 4.876-1.143 7.403a12.85 12.85 0 0 0 3.183 6.781 12.84 12.84 0 0 0 6.425 3.85c2.477.616 5.08.48 7.48-.4s4.485-2.437 6-4.5a12.83 12.83 0 0 0 .552-14.318c-1.342-2.172-3.3-3.894-5.625-4.947-3.053-1.382-6.526-1.516-9.677-.373s-5.73 3.474-7.185 6.493z" class="B"/><path d="M120.557 116.915a12.84 12.84 0 0 0 2 14.194 12.84 12.84 0 0 0 13.901 3.495c2.402-.866 4.49-2.428 6-4.487s2.37-4.522 2.474-7.073-.557-5.075-1.895-7.25-3.295-3.9-5.62-4.957a12.84 12.84 0 0 0-16.862 6.077z" class="C"/><path opacity=".04" d="M200.884 162.664c-1.374-.636-2.905-.855-4.402-.63s-2.896.884-4.023 1.895a7.75 7.75 0 0 0-2.317 3.796c-.385 1.465-.332 3 .152 4.445a7.75 7.75 0 0 0 6.714 5.244 7.74 7.74 0 0 0 4.349-.928 7.75 7.75 0 0 0 3.122-3.167c.468-.935.747-1.954.82-2.997a7.91 7.91 0 0 0-1.948-5.772c-.69-.786-1.528-1.427-2.467-1.887z" class="B"/></svg>
